frontend/public/icon.svg

<?xml version="1.0" encoding="utf-8" ?><svg xmlns="http://www.w3.org/2000/svg" xmlns:xlink="http://www.w3.org/1999/xlink" width="592" height="592" viewBox="0 0 592 592"><path fill="#FEFEFE" d="M573.488 21.736C576.431 21.8127 579.702 23.1871 580.801 26.2026C581.575 28.3276 581.539 31.7476 581.556 34.096C581.587 38.6948 581.805 43.4346 581.401 48.01C581.308 49.0518 580.496 50.5599 580.086 51.5606C577.852 57.0188 577.159 63.0843 575.031 68.6123C572.99 74.4314 569.925 79.8661 567.443 85.4569C566.131 88.4128 566.9 90.065 563.53 92.3537C562.152 93.2897 560.043 95.4059 558.866 96.7173C556.29 99.5889 555.529 103.747 553.243 106.782C551.938 108.507 548.125 109.133 546.578 110.749C541.437 115.489 536.849 120.759 532.006 125.752C530.595 127.023 527.142 127.097 525.804 128.115C513.431 137.525 499.559 144.058 485.466 150.437C483.421 151.362 481.821 153.603 479.74 154.468C477.555 155.375 474.929 154.533 472.655 155.12C466.108 157.678 458.176 159.577 452.107 162.972C456.335 167.092 458.614 166.736 462.808 170.284C464.926 172.075 465.727 175.973 467.107 177.574C470.975 181.972 474.931 185.46 479.075 189.686C492.281 203.153 500.427 220.542 506.106 238.325C507.085 241.393 506.955 246.86 507.711 250.211C510.208 261.141 512.668 272.329 517.376 282.576C520.11 287.753 522.338 293.769 525.228 298.819C529.788 306.791 534.54 314.732 539.794 322.256C542.686 326.397 545.041 330.735 548.236 334.743C550.171 337.17 551.681 340.904 553.557 343.459C556.967 348.53 560.218 353.582 562.477 359.291C563.8 362.485 564.138 365.768 565.048 368.099C567.073 373.283 568.178 372.653 568.148 378.72C564.291 385.928 560.491 393.49 556.427 400.55C554.857 403.279 550.874 407.955 548.713 410.528C540.867 419.872 532.138 428.606 522.048 435.53C517.792 438.396 505.32 443.713 500.228 444.2C490.453 445.135 483.247 444.192 474.02 441.095C465.806 438.338 460.28 434.606 452.616 431.598C449.746 430.472 441.86 429.16 438.236 428.156C433.427 426.824 428.36 425.468 423.505 424.31C420.924 423.461 417.018 423.37 414.553 422.66C403.709 419.533 400.198 420.996 391.412 427.864C374.825 440.831 366.727 461.498 360.39 480.95C357.823 488.829 354.91 496.856 351.955 504.596C349.958 510.03 351.649 512.561 346.215 517.67C345.73 519.148 341.966 524.754 341.793 525.846C340.766 532.314 340.904 533.622 334.517 537.006C331.587 538.558 325.904 550.941 324.138 551.975C317.702 555.742 310.457 560.593 303.72 564.005C303.096 564.332 296.84 565.042 295.899 565.112C287.789 565.708 279.758 565.166 271.635 565.907C268.205 566.181 263.501 565.488 260.024 565.45L182.55 565.315C179.154 565.309 175.843 565.743 172.449 565.939C169.916 566.243 166.229 565.303 163.852 565.54C154.497 566.47 145.345 566.392 136.003 565.481C133.609 565.348 130.689 566 128.343 565.822C123.162 565.43 118.354 565.348 113.168 565.804C111.03 565.869 108.789 565.503 106.665 565.576C93.8811 566.012 81.1112 566.281 68.3409 565.379C65.5451 565.182 62.007 565.931 59.2658 565.744C54.2222 565.398 49.4924 565.799 44.4719 565.949C38.7106 565.654 32.2379 565.475 26.5288 564.863C24.0866 564.601 21.6308 560.605 21.6049 558.227C21.5752 555.495 22.2573 553.962 23.8959 551.76C33.7244 538.808 44.3419 526.415 54.5459 513.744C57.1206 510.54 59.5161 507.093 62.1045 503.846C71.1832 492.534 80.4579 481.381 89.9246 470.392C92.2297 467.709 94.4087 464.102 96.7912 461.562C101.996 456.011 104.063 458.281 110.24 459.776C111.121 459.989 113.677 459.89 114.758 459.85C116.593 458.237 117.875 457.331 120.39 457.214C124.554 457.021 126.745 452.443 130.689 451.902C132.059 451.713 144.003 453.274 144.974 453.856C146.421 454.724 147.197 456.441 148.542 457.415C149.015 457.758 149.956 458.017 150.548 457.957C151.263 457.884 157.257 449.821 158.099 448.762L209.293 383.53C213.546 378.114 214.693 374.451 220.249 369.844C223.064 367.51 226.293 359.441 231.086 358.473C234.805 357.722 237.993 357.91 241.7 357.503C244.135 357.027 253.124 354.729 255.543 356.367C263.077 361.464 270.671 368.456 278.477 373.399C280.164 374.467 282.647 374.081 284.395 375.983C286.081 377.817 286.133 379.327 287.103 381.496C291.882 386.624 291.054 389.36 290.316 395.75C290.02 398.308 293.124 402.322 295.374 404.203C301.584 409.392 307.334 409.321 315.003 408.725C319.431 405.667 323.133 403.305 325.598 398.366C326.808 395.941 328.18 392.629 326.759 390.109C326.53 389.538 325.343 387.487 325.367 386.977C325.613 381.599 322.896 379.669 320.897 375.203C320.275 373.811 321.036 371.571 321.684 370.244C322.818 367.923 324.544 365.654 325.881 363.426C327.357 361.052 328.508 358.301 330.036 355.985C334.186 349.694 338.06 343.385 341.807 336.847C343.993 333.033 346.847 329.43 348.992 325.538C350.886 322.102 352.745 318.609 354.751 315.246C356.756 312.307 355.293 310.113 356.947 308.138C359.006 305.597 362.825 303.5 364.362 300.504C369.715 290.071 376.601 280.592 382.367 270.41C383.973 267.572 388.957 267.764 391.86 267.398C396.395 266.826 401.679 264.488 404.629 260.9C406.859 258.133 405.543 257.466 406.329 254.643C407.166 252.387 409.363 250.1 408.841 247.555C408.585 245.891 407.187 244.062 406.684 242.575C405.014 237.644 405.17 235.643 400.519 232.689C395.806 233.529 395.987 232.635 392.065 230.475C389.859 229.259 386.238 229.678 383.933 230.588C379.686 232.265 376.424 234.603 374.347 238.697C375.478 243.31 375.554 245.555 371.317 248.463C371.511 248.865 371.697 249.271 371.878 249.679C373.328 252.994 376.35 261.405 374.63 264.662C369.404 274.556 362.939 283.949 357.371 293.682C354.091 299.416 349.635 305.295 346.437 311.034C339.538 323.41 331.605 334.96 324.42 347.149C323.335 348.971 321.438 353.278 320.395 354.569C316.172 359.801 313.734 364.676 311.039 370.797C310.777 371.39 309.291 373.166 308.065 373.413C303.797 374.272 296.977 373.563 292.707 372.399C289.338 370.26 284.11 366.068 280.877 363.43L269.284 354.139C266.272 351.704 260.571 348.438 258.336 345.423C256.13 342.446 257.024 336.489 255.687 332.621C253.581 326.394 250.632 323.367 244.895 320.242C236.96 315.919 229.95 319.166 223.762 324.72C222.078 326.232 220.494 329.81 219.397 332.004C222.074 336.204 221.573 338.783 219.488 343.101C225.529 353.064 215.877 358.249 211.078 365.711C210.172 367.121 210.181 369.944 209.28 371.481C207.583 374.478 203.167 375.318 201.184 378.11C198.886 381.498 196.411 384.588 193.85 387.77C185.13 398.599 176.66 409.603 168.038 420.512C166.807 421.955 165.755 424.008 164.495 425.383C159.339 431.011 155.626 437.712 150.204 443.089C148.649 444.632 146.995 445.028 144.995 445.614C142.099 444.644 133.514 441.077 131.784 438.991C127.74 434.114 128.098 427.947 121.233 424.354C117.712 422.512 112.468 420.464 108.543 421.748C103.443 423.417 98.0525 425.637 95.5675 430.712C94.1378 433.631 91.4052 439.529 92.5204 442.598C93.1298 444.275 93.7951 445.766 94.3727 447.7C93.8786 449.184 92.394 452.383 91.3641 453.588C77.1109 470.265 64.0113 488.001 49.6256 504.638C46.1528 508.9 42.8655 513.454 39.2031 517.558C33.7458 523.673 27.785 535.049 19.2524 536.49C12.4204 533.998 12.0145 529.113 12.8008 522.618C13.4191 517.512 13.68 514.675 13.6543 509.49L13.6092 435.243C13.5398 425.799 12.8092 415.707 12.8297 406.35L12.9986 370.228C13.0311 367.668 13.3815 365.092 13.5267 362.463C13.9288 355.184 13.1863 348.55 12.9872 341.243C12.8924 337.768 13.5982 334.867 13.583 330.646C13.5552 322.97 11.5349 312.811 13.597 305.36C17.7484 298.44 36.1777 296.106 43.6745 293.03C47.3242 291.533 56.1261 289.026 59.267 287.143C68.7512 281.457 79.3793 274.046 87.6083 266.564C88.1535 266.068 89.4233 263.234 89.8316 262.448C91.2687 259.68 93.4502 259.277 96.2464 258.457C97.9777 256.455 102.17 252.855 103.225 251.125C106.734 245.371 105.651 244.577 112.228 242.101C114.875 240.144 118.082 236.18 120.369 234.102C125.596 229.354 130.067 224.511 134.851 219.481L149.934 203.681C156.205 197.199 162.46 191.473 169.049 185.401C177.037 178.04 184.197 169.482 192.512 162.406C203.277 153.246 213.836 143.929 224.79 134.983C225.888 134.077 227.519 131.413 228.575 130.222C230.87 127.636 232.583 127.892 235.829 127.674C241.96 121.638 252.873 117.633 260.26 113.254C263.6 110.897 263.179 109.441 267.55 109.026C271.284 108.671 277.657 106.179 281.32 105.102C286.24 103.706 291.196 102.443 296.184 101.315C298.261 100.866 300.538 100.845 302.625 100.52C305.74 100.034 308.863 99.0845 312.013 98.8685C313.938 98.7365 318.624 99.6336 320.228 99.22C323.094 98.4814 325.21 95.5539 328.865 95.4741C332.483 95.395 334.743 96.5696 337.354 98.7946C342.778 97.427 342.947 98.9792 347.816 98.585C350.013 98.4071 351.566 95.9912 355.404 95.5884C363.51 94.7378 365.973 99.0643 373.044 99.7203C374.689 99.8729 377.813 99.1533 379.66 99.2042C382.689 99.2877 385.787 99.6515 388.804 99.6994C399.614 99.8438 410.426 99.8422 421.236 99.6944C426.318 93.0532 430.32 97.1783 436.939 97.643C441.785 97.9832 443.905 97.6678 448.353 95.9823C450.548 95.3971 454.436 96.183 456.467 95.6227C463.885 93.5762 471.141 91.7397 478.721 90.3817C480.788 90.0115 485.867 86.1405 487.191 86.1361C494.085 86.1135 500.016 83.4092 506.042 80.3506C509.074 78.8107 512.785 77.3994 515.939 75.6417C528.273 68.7678 540.161 60.3619 550.091 50.281C554.48 44.9243 558.574 39.1973 562.43 33.4649C565.42 29.0191 567.577 22.595 573.488 21.736Z"/><path d="M565.657 50.8696L565.896 51.2935C565.703 60.4312 559.659 72.828 554.8 80.5935C551.44 85.9645 547.651 91.4914 543.422 96.2102C527.516 113.96 505.948 127.232 484.321 136.802C480.612 138.443 476.898 140.249 473.081 141.611C466.236 144.053 458.783 146.66 451.803 148.656C448.732 149.534 444.845 149.71 442.019 151.038C440.796 151.613 439.612 153.195 438.872 154.274C437.55 156.202 436.163 159.093 435.947 161.43C435.788 163.154 437.113 164.96 438.118 166.256C440.861 169.794 444.63 172.932 447.831 176.087C452.908 181.093 457.837 186.24 462.864 191.294C465.445 193.889 468.226 196.32 470.698 199.017C474.316 202.965 477.72 207.961 480.69 212.428C485.334 219.414 491.722 234.771 493.7 243.141C494.528 246.646 494.774 250.268 495.43 253.808C497.571 265.375 500.093 275.684 504.865 286.469C510.047 298.181 516.354 309.737 523.091 320.624C524.487 322.882 526.18 324.962 527.684 327.149C529.537 329.842 531.212 332.663 533.049 335.372C538.6 343.556 549.951 358.979 551.529 368.223C551.883 370.299 551.87 372.449 551.887 374.551C551.907 377.062 551.983 379.711 551.459 382.179C550.5 386.697 546.628 392.52 543.903 396.238C540.031 401.52 535.549 406.32 530.933 410.946C528.448 413.437 525.999 416.08 523.325 418.366C513.775 426.53 500.488 433.845 487.519 431.244C481.991 430.136 475.674 428.36 470.564 425.961C466.764 424.176 463.201 421.836 459.25 420.381C454.041 418.462 448.5 417.302 443.126 415.945C437.687 414.572 432.305 413.017 426.834 411.771C418.12 409.785 408.432 407.495 399.469 408.961C394.164 409.828 389.096 413.674 384.899 416.835C379.121 421.188 374.586 426.052 370.153 431.725C352.214 454.678 348.808 479.392 337.774 505.193C333.755 514.59 328.039 523.957 322.02 532.22C318.254 537.39 308.731 546.815 303.209 549.858C300.794 551.189 298.191 551.956 295.473 552.373C290.885 553.077 286.128 552.952 281.497 552.985C275.478 553.056 269.459 553.058 263.441 552.992L226.415 552.906C222.097 552.878 217.758 552.835 213.442 552.989C210.274 553.103 207.098 553.454 203.929 553.481L155.394 553.503C151.435 553.492 147.397 553.585 143.448 553.437C140.771 553.337 138.103 553.02 135.424 552.981C117.924 552.872 100.423 552.932 82.9239 553.16C74.3649 553.355 65.7372 552.956 57.1624 552.925C52.1422 552.907 47.0245 553.343 42.0279 553.152C41.179 553.12 40.4122 553.114 39.7201 552.604C41.4026 550.636 42.6915 548.34 44.3317 546.322L73.3608 510.217C75.0885 508.073 77.1071 506.178 78.843 504.045C80.3216 502.228 81.53 500.199 83.0422 498.409C90.3526 489.754 97.792 481.146 104.794 472.232C119.233 473.273 121.922 473.222 133.57 464.921C134.852 465.917 136.193 466.936 137.596 467.753C142.792 470.776 150.294 471.623 156.052 470.001C158.047 469.439 159.338 467.916 160.653 466.389C162.241 464.545 163.56 462.47 165.078 460.567L179.338 442.463L212.938 399.105C214.966 396.467 217.211 394.005 219.284 391.403C221.479 388.649 223.466 385.73 225.671 382.985C229.046 378.783 231.857 376.261 234.59 371.372C238.745 370.477 246.92 370.592 250.05 368.5C256.728 373.022 262.997 378.09 269.306 383.094C272.001 385.233 274.709 386.672 276.908 389.423C277.094 395.339 277.596 401.615 280.968 406.659C285.561 413.528 293.379 419.727 301.62 421.272C308.449 422.552 317.771 422.347 323.626 418.303C330.032 413.877 333.381 411.235 336.925 404.147C338.216 401.564 339.292 398.869 339.791 396.014C341.132 388.352 338.977 379.829 334.579 373.503C337.274 369.654 339.272 365.442 341.781 361.486C351.896 345.538 361.466 329.28 371.326 313.173C375.531 306.475 379.405 299.617 383.586 292.969C386.206 288.804 389.348 284.744 391.507 280.32C401.42 278.765 405.937 277.186 413.303 270.136C425.61 258.358 424.078 236.595 411.82 225.551C389.674 205.599 355.567 222.551 359.112 252.418C359.424 255.041 361.94 259.298 362.02 261.718C359.204 264.49 352.896 276.148 350.316 280.271L314.347 338.488C310.418 344.839 306.959 351.428 302.893 357.72C302.051 359.022 301.08 360.381 299.439 360.644C297.105 361.019 278.459 345.143 275.368 342.721C273.445 341.214 271.401 339.833 269.402 338.429C269.193 336.603 269.373 332.046 268.921 330.65C265.99 321.948 261.277 315.704 253.58 310.549C239.5 301.117 220.951 305.962 211.48 319.448C204.881 328.846 205.336 338.657 207.787 349.641C206.324 351.545 204.441 353.441 202.876 355.429L176.651 388.592C172.912 393.343 144.493 430.438 143.52 430.683C140.796 430.03 140.877 427.885 139.464 425.516C132.674 414.122 118.818 406.215 105.465 409.471C100.994 410.561 95.4629 412.822 91.6342 415.53C82.8973 422.773 77.6052 436.487 80.316 447.373C72.6508 455.117 66.5419 464.491 59.4184 472.767C57.7546 474.7 56.1561 476.922 54.5171 478.924L35.3079 502.296C32.2911 505.982 28.0367 510.272 25.9967 514.319C26.3201 510.062 26.074 505.355 26.0633 501.023C26.0794 493.134 26.0458 485.244 25.9624 477.355L25.3867 411.122C25.3127 405.122 26.0137 398.647 25.8638 392.691C25.1973 366.217 27.2564 338.558 25.161 312.174C31.5489 309.724 37.4194 308.718 43.7566 306.774C50.3814 304.741 60.634 301.336 66.5699 297.88C90.721 283.822 109.579 263.227 128.82 243.389C131.851 240.264 135.537 237.645 138.6 234.537C140.86 232.381 142.793 229.375 145.019 227.255C155.832 216.701 165.406 205.485 176.762 195.474C181.892 190.952 188.849 184.078 193.497 179.115C197.957 174.354 201.654 171.936 206.211 167.757C213.682 160.906 221.024 154.319 229.251 148.353C231.967 146.31 234.421 143.759 237.244 141.823C249.691 132.908 263.892 125.073 278.239 119.723C289.129 115.661 301.516 113.617 312.902 111.536C314.57 111.231 317.784 112.094 319.74 111.911C329.985 110.954 340.325 111.101 350.603 111.104C357.661 111.226 364.793 111.966 371.855 111.95C389.521 111.911 407.213 112.325 424.876 111.962C428.184 111.977 432.176 110.404 435.364 110.313C441.248 110.146 446.46 109.916 452.257 108.579C454.156 108.141 457.148 108.194 459.303 107.837C492.276 102.381 524.275 89.7958 549.87 67.9136C555.134 63.4127 561.917 57.032 565.657 50.8696Z"/></svg>

<svg version="1.2" xmlns="http://www.w3.org/2000/svg" viewBox="0 0 592 592" width="592" height="592"><style>.a{fill:#fefefe}</style><path class="a" d="m573.5 21.7c2.9 0.1 6.2 1.5 7.3 4.5 0.8 2.1 0.7 5.5 0.8 7.9 0 4.6 0.2 9.3-0.2 13.9-0.1 1.1-0.9 2.6-1.3 3.6-2.2 5.4-2.9 11.5-5.1 17-2 5.8-5.1 11.3-7.6 16.9-1.3 2.9-0.5 4.6-3.9 6.9-1.3 0.9-3.5 3-4.6 4.3-2.6 2.9-3.4 7-5.7 10.1-1.3 1.7-5.1 2.3-6.6 3.9-5.2 4.8-9.8 10.1-14.6 15.1-1.4 1.2-4.9 1.3-6.2 2.3-12.4 9.4-26.2 16-40.3 22.3-2.1 1-3.7 3.2-5.8 4.1-2.1 0.9-4.8 0-7 0.6-6.6 2.6-14.5 4.5-20.6 7.9 4.2 4.1 6.5 3.7 10.7 7.3 2.1 1.8 2.9 5.7 4.3 7.3 3.9 4.4 7.8 7.9 12 12.1 13.2 13.5 21.3 30.8 27 48.6 1 3.1 0.9 8.6 1.6 11.9 2.5 10.9 5 22.1 9.7 32.4 2.7 5.2 4.9 11.2 7.8 16.2 4.6 8 9.3 15.9 14.6 23.5 2.9 4.1 5.2 8.4 8.4 12.4 2 2.5 3.5 6.2 5.4 8.8 3.4 5 6.6 10.1 8.9 15.8 1.3 3.2 1.6 6.5 2.5 8.8 2.1 5.2 3.2 4.6 3.1 10.6-3.8 7.2-7.6 14.8-11.7 21.9-1.5 2.7-5.5 7.4-7.7 9.9-7.8 9.4-16.6 18.1-26.7 25-4.2 2.9-16.7 8.2-21.8 8.7-9.7 0.9-17 0-26.2-3.1-8.2-2.8-13.7-6.5-21.4-9.5-2.9-1.1-10.7-2.4-14.4-3.4-4.8-1.4-9.8-2.7-14.7-3.9-2.6-0.8-6.5-0.9-8.9-1.6-10.9-3.2-14.4-1.7-23.2 5.2-16.6 12.9-24.7 33.6-31 53-2.6 7.9-5.5 16-8.4 23.7-2 5.4-0.4 8-5.8 13.1-0.5 1.4-4.2 7.1-4.4 8.1-1 6.5-0.9 7.8-7.3 11.2-2.9 1.6-8.6 13.9-10.4 15-6.4 3.7-13.6 8.6-20.4 12-0.6 0.3-6.9 1-7.8 1.1-8.1 0.6-16.1 0.1-24.3 0.8-3.4 0.3-8.1-0.4-11.6-0.4l-77.4-0.2c-3.4 0-6.8 0.4-10.2 0.6-2.5 0.3-6.2-0.6-8.5-0.4-9.4 1-18.6 0.9-27.9 0-2.4-0.2-5.3 0.5-7.7 0.3-5.1-0.4-9.9-0.5-15.1 0-2.2 0.1-4.4-0.3-6.5-0.2-12.8 0.4-25.6 0.7-38.4-0.2-2.8-0.2-6.3 0.5-9 0.3-5.1-0.3-9.8 0.1-14.8 0.2-5.8-0.2-12.3-0.4-18-1-2.4-0.3-4.9-4.3-4.9-6.7 0-2.7 0.7-4.2 2.3-6.4 9.8-13 20.4-25.4 30.6-38.1 2.6-3.2 5-6.6 7.6-9.9q13.6-16.9 27.8-33.4c2.3-2.7 4.5-6.3 6.9-8.8 5.2-5.6 7.3-3.3 13.4-1.8 0.9 0.2 3.5 0.1 4.6 0.1 1.8-1.7 3.1-2.6 5.6-2.7 4.2-0.2 6.3-4.8 10.3-5.3 1.4-0.2 13.3 1.4 14.3 2 1.4 0.8 2.2 2.5 3.5 3.5 0.5 0.4 1.5 0.6 2 0.6 0.8-0.1 6.8-8.2 7.6-9.2l51.2-65.3c4.2-5.4 5.4-9 10.9-13.7 2.9-2.3 6.1-10.4 10.9-11.3 3.7-0.8 6.9-0.6 10.6-1 2.4-0.5 11.4-2.8 13.8-1.1 7.6 5.1 15.2 12.1 23 17 1.7 1.1 4.1 0.7 5.9 2.6 1.7 1.8 1.7 3.3 2.7 5.5 4.8 5.1 4 7.9 3.2 14.3-0.3 2.5 2.8 6.5 5.1 8.4 6.2 5.2 11.9 5.1 19.6 4.5 4.4-3 8.1-5.4 10.6-10.3 1.2-2.5 2.6-5.8 1.2-8.3-0.3-0.6-1.5-2.6-1.4-3.1 0.2-5.4-2.5-7.3-4.5-11.8-0.6-1.4 0.1-3.6 0.8-5 1.1-2.3 2.8-4.5 4.2-6.8 1.5-2.3 2.6-5.1 4.1-7.4 4.2-6.3 8.1-12.6 11.8-19.2 2.2-3.8 5-7.4 7.2-11.3 1.9-3.4 3.7-6.9 5.8-10.3 2-2.9 0.5-5.1 2.1-7.1 2.1-2.5 5.9-4.6 7.5-7.6 5.3-10.4 12.2-19.9 18-30.1 1.6-2.8 6.6-2.6 9.5-3 4.5-0.6 9.8-2.9 12.7-6.5 2.3-2.8 0.9-3.4 1.7-6.3 0.9-2.2 3.1-4.5 2.5-7-0.2-1.7-1.6-3.5-2.1-5-1.7-5-1.5-7-6.2-9.9-4.7 0.8-4.5-0.1-8.4-2.2-2.2-1.2-5.9-0.8-8.2 0.1-4.2 1.7-7.5 4-9.6 8.1 1.2 4.6 1.3 6.9-3 9.8q0.3 0.6 0.6 1.2c1.4 3.3 4.5 11.7 2.7 15-5.2 9.9-11.7 19.2-17.2 29-3.3 5.7-7.8 11.6-11 17.3-6.9 12.4-14.8 24-22 36.1-1.1 1.9-3 6.2-4 7.5-4.2 5.2-6.7 10.1-9.4 16.2-0.2 0.6-1.7 2.4-2.9 2.6-4.3 0.9-11.1 0.2-15.4-1-3.4-2.1-8.6-6.3-11.8-9l-11.6-9.3c-3-2.4-8.7-5.7-11-8.7-2.2-3-1.3-8.9-2.6-12.8-2.1-6.2-5.1-9.2-10.8-12.4-7.9-4.3-15-1-21.1 4.5-1.7 1.5-3.3 5.1-4.4 7.3 2.7 4.2 2.2 6.8 0.1 11.1 6 10-3.6 15.1-8.4 22.6-0.9 1.4-0.9 4.2-1.8 5.8-1.7 3-6.1 3.8-8.1 6.6-2.3 3.4-4.8 6.5-7.4 9.7-8.7 10.8-17.1 21.8-25.8 32.7-1.2 1.5-2.2 3.5-3.5 4.9-5.2 5.6-8.9 12.3-14.3 17.7-1.6 1.5-3.2 1.9-5.2 2.5-2.9-1-11.5-4.5-13.2-6.6-4.1-4.9-3.7-11.1-10.6-14.6-3.5-1.9-8.7-3.9-12.7-2.7-5.1 1.7-10.4 3.9-12.9 9-1.5 2.9-4.2 8.8-3.1 11.9 0.6 1.7 1.3 3.2 1.9 5.1-0.5 1.5-2 4.7-3 5.9-14.3 16.7-27.4 34.4-41.8 51-3.4 4.3-6.7 8.9-10.4 13-5.5 6.1-11.4 17.4-19.9 18.9-6.9-2.5-7.3-7.4-6.5-13.9 0.6-5.1 0.9-7.9 0.9-13.1l-0.1-74.3c-0.1-9.4-0.8-19.5-0.8-28.8l0.2-36.2c0-2.5 0.4-5.1 0.5-7.7 0.4-7.3-0.3-13.9-0.5-21.3-0.1-3.4 0.6-6.3 0.6-10.6 0-7.6-2.1-17.8 0-25.2 4.1-7 22.6-9.3 30.1-12.4 3.6-1.5 12.4-4 15.6-5.9 9.5-5.6 20.1-13.1 28.3-20.5 0.6-0.5 1.8-3.4 2.2-4.2 1.5-2.7 3.7-3.1 6.4-3.9 1.8-2 6-5.6 7-7.4 3.5-5.7 2.5-6.5 9-9 2.7-2 5.9-5.9 8.2-8 5.2-4.7 9.7-9.6 14.5-14.6l15-15.8c6.3-6.5 12.6-12.2 19.1-18.3 8-7.4 15.2-15.9 23.5-23 10.8-9.2 21.3-18.5 32.3-27.4 1.1-0.9 2.7-3.6 3.8-4.8 2.3-2.6 4-2.3 7.2-2.5 6.2-6.1 17.1-10.1 24.5-14.4 3.3-2.4 2.9-3.9 7.2-4.3 3.8-0.3 10.2-2.8 13.8-3.9q7.4-2.1 14.9-3.8c2.1-0.4 4.3-0.5 6.4-0.8 3.1-0.5 6.3-1.4 9.4-1.6 1.9-0.2 6.6 0.7 8.2 0.3 2.9-0.7 5-3.6 8.7-3.7 3.6-0.1 5.8 1.1 8.5 3.3 5.4-1.4 5.5 0.2 10.4-0.2 2.2-0.2 3.8-2.6 7.6-3 8.1-0.9 10.6 3.5 17.6 4.1 1.7 0.2 4.8-0.5 6.7-0.5 3 0.1 6.1 0.5 9.1 0.5q16.2 0.2 32.4 0c5.1-6.6 9.1-2.5 15.7-2.1 4.9 0.4 7 0.1 11.5-1.6 2.1-0.6 6 0.2 8.1-0.4 7.4-2 14.6-3.9 22.2-5.2 2.1-0.4 7.2-4.3 8.5-4.3 6.9 0 12.8-2.7 18.8-5.7 3.1-1.6 6.8-3 9.9-4.8 12.4-6.8 24.3-15.2 34.2-25.3 4.4-5.4 8.5-11.1 12.3-16.8 3-4.5 5.2-10.9 11.1-11.8z"/><path  d="m565.7 50.9l0.2 0.4c-0.2 9.1-6.2 21.5-11.1 29.3-3.4 5.4-7.1 10.9-11.4 15.6-15.9 17.8-37.5 31-59.1 40.6-3.7 1.6-7.4 3.4-11.2 4.8-6.9 2.5-14.3 5.1-21.3 7.1-3.1 0.8-7 1-9.8 2.3-1.2 0.6-2.4 2.2-3.1 3.3-1.4 1.9-2.7 4.8-3 7.1-0.1 1.8 1.2 3.6 2.2 4.9 2.8 3.5 6.5 6.6 9.7 9.8 5.1 5 10 10.1 15.1 15.2 2.5 2.6 5.3 5 7.8 7.7 3.6 4 7 9 10 13.4 4.6 7 11 22.4 13 30.7 0.8 3.5 1.1 7.2 1.7 10.7 2.2 11.6 4.7 21.9 9.5 32.7 5.1 11.7 11.5 23.2 18.2 34.1 1.4 2.3 3.1 4.4 4.6 6.5 1.8 2.7 3.5 5.6 5.3 8.3 5.6 8.2 17 23.6 18.5 32.8 0.4 2.1 0.4 4.2 0.4 6.4 0 2.5 0.1 5.1-0.4 7.6-1 4.5-4.9 10.3-7.6 14-3.9 5.3-8.4 10.1-13 14.7-2.5 2.5-4.9 5.2-7.6 7.5-9.5 8.1-22.8 15.4-35.8 12.8-5.5-1.1-11.8-2.8-16.9-5.2-3.8-1.8-7.4-4.2-11.4-5.6-5.2-1.9-10.7-3.1-16.1-4.5-5.4-1.3-10.8-2.9-16.3-4.1-8.7-2-18.4-4.3-27.3-2.8-5.3 0.8-10.4 4.7-14.6 7.8-5.8 4.4-10.3 9.3-14.7 14.9-18 23-21.4 47.7-32.4 73.5-4 9.4-9.8 18.8-15.8 27-3.7 5.2-13.3 14.6-18.8 17.7-2.4 1.3-5 2.1-7.7 2.5-4.6 0.7-9.4 0.6-14 0.6q-9 0.1-18.1 0l-37-0.1c-4.3 0-8.6-0.1-13 0.1-3.1 0.1-6.3 0.5-9.5 0.5h-48.5c-4 0-8 0.1-12-0.1-2.6-0.1-5.3-0.4-8-0.4q-26.2-0.2-52.5 0.2c-8.5 0.2-17.2-0.2-25.7-0.3-5.1 0-10.2 0.4-15.2 0.3-0.8-0.1-1.6-0.1-2.3-0.6 1.7-2 3-4.3 4.6-6.3l29.1-36.1c1.7-2.1 3.7-4 5.4-6.2 1.5-1.8 2.7-3.8 4.2-5.6 7.4-8.6 14.8-17.3 21.8-26.2 14.4 1.1 17.1 1 28.8-7.3 1.3 1 2.6 2 4 2.9 5.2 3 12.7 3.8 18.5 2.2 1.9-0.6 3.2-2.1 4.6-3.6 1.5-1.9 2.9-3.9 4.4-5.8l14.2-18.1 33.6-43.4c2.1-2.6 4.3-5.1 6.4-7.7 2.2-2.8 4.2-5.7 6.4-8.4 3.3-4.2 6.2-6.7 8.9-11.6 4.1-0.9 12.3-0.8 15.4-2.9 6.7 4.5 13 9.6 19.3 14.6 2.7 2.1 5.4 3.6 7.6 6.3 0.2 5.9 0.7 12.2 4.1 17.3 4.6 6.8 12.4 13 20.6 14.6 6.8 1.3 16.2 1 22-3 6.4-4.4 9.8-7.1 13.3-14.2 1.3-2.5 2.4-5.2 2.9-8.1 1.3-7.6-0.8-16.2-5.2-22.5 2.7-3.8 4.7-8.1 7.2-12 10.1-16 19.7-32.2 29.5-48.3 4.2-6.7 8.1-13.6 12.3-20.2 2.6-4.2 5.7-8.3 7.9-12.7 9.9-1.5 14.4-3.1 21.8-10.2 12.3-11.7 10.8-33.5-1.5-44.5-22.1-20-56.2-3-52.7 26.8 0.3 2.6 2.8 6.9 2.9 9.3-2.8 2.8-9.1 14.4-11.7 18.6l-36 58.2c-3.9 6.3-7.3 12.9-11.4 19.2-0.8 1.3-1.8 2.7-3.5 2.9-2.3 0.4-20.9-15.5-24-17.9-2-1.5-4-2.9-6-4.3-0.2-1.8 0-6.4-0.5-7.8-2.9-8.7-7.6-14.9-15.3-20.1-14.1-9.4-32.6-4.5-42.1 8.9-6.6 9.4-6.2 19.3-3.7 30.2-1.5 1.9-3.4 3.8-4.9 5.8l-26.2 33.2c-3.8 4.7-32.2 41.8-33.2 42.1-2.7-0.7-2.6-2.8-4-5.2-6.8-11.4-20.7-19.3-34-16-4.5 1.1-10 3.3-13.9 6-8.7 7.3-14 21-11.3 31.9-7.6 7.7-13.8 17.1-20.9 25.4-1.6 1.9-3.2 4.1-4.9 6.1l-19.2 23.4c-3 3.7-7.3 8-9.3 12 0.3-4.2 0.1-8.9 0.1-13.3q0-11.8-0.1-23.6l-0.6-66.3c-0.1-6 0.6-12.5 0.5-18.4-0.7-26.5 1.4-54.1-0.7-80.5 6.3-2.5 12.2-3.5 18.6-5.4 6.6-2.1 16.8-5.5 22.8-8.9 24.1-14.1 43-34.7 62.2-54.5 3.1-3.1 6.7-5.8 9.8-8.9 2.3-2.1 4.2-5.1 6.4-7.2 10.8-10.6 20.4-21.8 31.8-31.8 5.1-4.5 12-11.4 16.7-16.4 4.5-4.7 8.2-7.2 12.7-11.3 7.5-6.9 14.8-13.5 23.1-19.4 2.7-2.1 5.1-4.6 7.9-6.6 12.5-8.9 26.7-16.7 41-22.1 10.9-4 23.3-6.1 34.7-8.2 1.7-0.3 4.9 0.6 6.8 0.4 10.3-0.9 20.6-0.8 30.9-0.8 7.1 0.1 14.2 0.9 21.3 0.8 17.6 0 35.3 0.4 53 0.1 3.3 0 7.3-1.6 10.5-1.7 5.8-0.2 11.1-0.4 16.9-1.7 1.9-0.5 4.8-0.4 7-0.8 33-5.4 65-18 90.6-39.9 5.2-4.5 12-10.9 15.8-17z"/></svg>
